svgs/survivalcraft.svg

<svg width="192" height="192" viewBox="0 0 192 192" fill="none" xmlns="http://www.w3.org/2000/svg">
<path d="M55.0909 35.0019L94.1829 22.2882C95.3643 21.9039 96.6357 21.9039 97.8171 22.2882L136.909 35.0019M55.0909 35.0019L96 51.7559M55.0909 35.0019L58.013 80.3363M136.909 35.0019L96 51.7559M136.909 35.0019L133.987 80.3363M96 51.7559V146.367M58.013 80.3363L21 100.54M58.013 80.3363L72.2581 89.3908L119.742 118.957L133.987 127.642M133.987 80.3363L171 100.54M133.987 80.3363L119.742 89.3908L72.2581 118.957L58.013 127.642M171 100.54L133.987 127.642M171 100.54L168.224 140.741C168.107 142.439 167.276 144.006 165.942 145.048L133.987 170M133.987 127.642V170M133.987 170L96 146.367M96 146.367L58.013 170M21 100.54L58.013 127.642M21 100.54L23.7762 140.741C23.8935 142.439 24.7237 144.006 26.0582 145.048L58.013 170M58.013 127.642V170" stroke="black" stroke-width="10" stroke-linecap="round" stroke-linejoin="round"/>
</svg>

<svg xmlns="http://www.w3.org/2000/svg" width="192" height="192" fill="none" viewBox="0 0 192 192"><path stroke="#000" stroke-linecap="round" stroke-linejoin="round" stroke-width="10" d="m55.09 35.002 39.093-12.714a5.87 5.87 0 0 1 3.634 0l39.092 12.714m-81.818 0L96 51.756M55.09 35.002l2.923 45.334m78.896-45.334L96 51.756m40.909-16.754-2.922 45.334M96 51.756v94.611m-37.987-66.03L21 100.54m37.013-20.204 14.245 9.055 47.484 29.566 14.245 8.685m0-47.306L171 100.54m-37.013-20.204-14.245 9.055-47.484 29.566-14.245 8.685M171 100.54l-37.013 27.102M171 100.54l-2.776 40.201a6 6 0 0 1-2.282 4.307L133.987 170m0-42.358V170m0 0L96 146.367m0 0L58.013 170M21 100.54l37.013 27.102M21 100.54l2.776 40.201a6 6 0 0 0 2.282 4.307L58.013 170m0-42.358V170"/></svg>
